website/static/img/icons/white/book.svg

<svg fill="none" height="27" viewBox="0 0 27 27" width="27" xmlns="http://www.w3.org/2000/svg"><path d="m13.4997 23.8018-8.31043-1.8467c-1.18197-.2627-2.02293-1.311-2.02293-2.5219v-13.6832c0-1.42674 1.1566-2.58334 2.58333-2.58334h3.87501c.71332 0 1.29162-.5783 1.29162-1.29167 0-.71336-.5783-1.291662-1.29162-1.291662h-3.87501c-2.85347 0-5.166662 2.313192-5.166662 5.166672v13.6832c0 2.4217 1.681912 4.5184 4.045862 5.0437l8.87083 1.9713 8.8708-1.9713c2.3639-.5253 4.0458-2.622 4.0458-5.0437v-13.6832c0-2.85348-2.3132-5.166672-5.1666-5.166672h-3.875c-2.8535 0-5.1667 2.313192-5.1667 5.166672v14.2083c0 .7134.5783 1.2917 1.2917 1.2917.7133 0 1.2916-.5783 1.2916-1.2917v-14.2083c0-1.42674 1.1566-2.58334 2.5834-2.58334h3.875c1.4267 0 2.5833 1.1566 2.5833 2.58334v13.6832c0 1.2109-.8409 2.2592-2.0229 2.5219z" fill="#fff"/></svg>

<svg width="27" height="27" viewBox="0 0 27 27" fill="none" xmlns="http://www.w3.org/2000/svg">
<path d="M13.4997 23.8018L5.18927 21.9551C4.0073 21.6924 3.16634 20.6441 3.16634 19.4332V5.75C3.16634 4.32326 4.32294 3.16666 5.74967 3.16666H9.62468C10.338 3.16666 10.9163 2.58836 10.9163 1.87499C10.9163 1.16163 10.338 0.583328 9.62468 0.583328H5.74967C2.8962 0.583328 0.583008 2.89652 0.583008 5.75V19.4332C0.583008 21.8549 2.26492 23.9516 4.62887 24.4769L13.4997 26.4482L22.3705 24.4769C24.7344 23.9516 26.4163 21.8549 26.4163 19.4332V5.75C26.4163 2.89652 24.1031 0.583328 21.2497 0.583328H17.3747C14.5212 0.583328 12.208 2.89652 12.208 5.75V19.9583C12.208 20.6717 12.7863 21.25 13.4997 21.25C14.213 21.25 14.7913 20.6717 14.7913 19.9583V5.75C14.7913 4.32326 15.9479 3.16666 17.3747 3.16666H21.2497C22.6764 3.16666 23.833 4.32326 23.833 5.75V19.4332C23.833 20.6441 22.9921 21.6924 21.8101 21.9551L13.4997 23.8018Z" fill="white"/>
</svg>
